public/naqsh-about.svg

<svg preserveAspectRatio="none" width="100%" height="100%" overflow="visible" style="display: block;" viewBox="0 0 26.5833 26.5833" fill="none" xmlns="http://www.w3.org/2000/svg">
<g id="Chiz naqsh 9">
<path id="Vector" d="M18.8585 20.2412C18.5215 23.3327 15.3044 22.8441 13.2875 25.5042C12.3249 24.3773 11.1705 23.5801 9.83046 23.026C8.21134 22.3563 7.4195 20.7881 7.66712 18.927C5.72235 19.1163 4.13966 18.32 3.44849 16.551C2.95227 15.2807 2.11218 14.2141 1.07617 13.2791C2.1747 12.3058 2.97565 11.2009 3.51125 9.88992C4.19184 8.22354 5.78413 7.41349 7.63709 7.64708C7.40793 5.77591 8.25712 4.15309 9.95673 3.47374C11.2337 2.96349 12.3133 2.15516 13.2688 1.07853C14.167 2.07122 15.2096 2.91623 16.4618 3.39522C18.267 4.08565 19.1553 5.71486 18.9141 7.68744C20.8911 7.40241 22.4467 8.31412 23.1332 10.0376C23.6393 11.3079 24.4259 12.4232 25.5075 13.2576C24.3521 14.2373 23.5765 15.4508 22.9843 16.7967C22.4642 17.9786 21.4838 18.7402 20.1994 18.8724L18.9941 18.9962L18.8582 20.2414L18.8585 20.2412ZM13.3028 25.0611C14.1987 24.1034 15.2013 23.3519 16.3702 22.8983C18.1296 22.2152 18.903 20.6008 18.6081 18.6691C20.867 18.7252 22.0069 18.324 22.8647 16.3935C23.3978 15.1938 24.1148 14.1834 25.0794 13.2658C24.0498 12.3605 23.3636 11.2723 22.8169 10.0455C22.3283 8.94868 21.4498 8.05444 20.1965 7.97149L18.6625 7.87008C18.7733 5.87978 18.3022 4.5388 16.5442 3.76813C15.3187 3.23104 14.2298 2.54677 13.2981 1.50731C12.3662 2.44068 11.2655 3.27043 9.96904 3.78388C7.34492 4.82284 8.03239 7.89027 7.80963 7.89667L7.35919 7.90971C5.77158 7.79698 4.37964 8.51645 3.7702 10.0014C3.26265 11.2378 2.51832 12.3038 1.50594 13.2869C2.54072 14.2464 3.26142 15.3754 3.81056 16.6431C4.26519 17.6926 5.1353 18.4699 6.28183 18.5743L7.88963 18.7208C7.81554 20.6269 8.21995 22.0065 9.94221 22.7595C11.2157 23.3162 12.313 24.0291 13.303 25.0609L13.3028 25.0611Z" fill="var(--fill-0, #003837)" stroke="var(--stroke-0, #003837)" stroke-width="0.453704" stroke-miterlimit="10"/>
</g>
</svg>

<svg xmlns="http://www.w3.org/2000/svg" fill="none" overflow="visible" preserveAspectRatio="none" style="display:block" viewBox="0 0 26.583 26.583"><path fill="var(--fill-0, #003837)" stroke="var(--stroke-0, #003837)" stroke-miterlimit="10" stroke-width=".454" d="M18.859 20.241c-.338 3.092-3.555 2.603-5.572 5.263-.962-1.127-2.117-1.924-3.457-2.478-1.619-.67-2.41-2.238-2.163-4.099-1.945.19-3.527-.607-4.219-2.376-.496-1.27-1.336-2.337-2.372-3.272 1.099-.973 1.9-2.078 2.435-3.39.68-1.665 2.273-2.476 4.126-2.242-.23-1.871.62-3.494 2.32-4.173 1.277-.51 2.356-1.319 3.312-2.395.898.992 1.94 1.837 3.193 2.316 1.805.69 2.693 2.32 2.452 4.292 1.977-.285 3.533.627 4.22 2.35.505 1.27 1.292 2.386 2.374 3.22-1.156.98-1.931 2.194-2.524 3.54-.52 1.182-1.5 1.943-2.785 2.075l-1.205.124-.136 1.245Zm-5.556 4.82c.896-.958 1.898-1.71 3.067-2.163 1.76-.683 2.533-2.297 2.238-4.229 2.259.056 3.399-.345 4.257-2.276a9.6 9.6 0 0 1 2.214-3.127c-1.03-.905-1.715-1.994-2.262-3.22-.489-1.097-1.367-1.992-2.62-2.075l-1.534-.1c.11-1.991-.36-3.332-2.119-4.103-1.225-.537-2.314-1.221-3.246-2.26-.932.933-2.033 1.762-3.329 2.276-2.624 1.039-1.937 4.106-2.16 4.113l-.45.013C5.772 7.797 4.38 8.516 3.77 10c-.507 1.237-1.252 2.303-2.264 3.286 1.035.96 1.755 2.088 2.305 3.356.454 1.05 1.324 1.827 2.47 1.931l1.609.147c-.074 1.906.33 3.285 2.052 4.038 1.274.557 2.371 1.27 3.361 2.302Z"/></svg>
